icons/dark/github-folder.svg

<svg width="16" height="16" viewBox="0 0 16 16" fill="none" xmlns="http://www.w3.org/2000/svg">
<path fill-rule="evenodd" clip-rule="evenodd" d="M1.5 2L1 2.5V6.24821C1.30726 5.99577 1.64236 5.77599 2 5.59417V3H6.28916L7.14196 3.8528L7.49551 3.99925H13.9902V5.00311H7.48964L7.13608 5.14956L6.785 5.50064C7.1006 5.64581 7.4001 5.81999 7.68009 6.01976L7.69674 6.00311H13.9794V7.49588L13.9797 11.4929L13.9794 13.0021H9.38836C9.20526 13.3599 8.98411 13.695 8.73026 14.0021H14.4794L14.9794 13.5021V9.00599L14.9902 8.99512V3.49925L14.4902 2.99925H7.70262L6.84982 2.14645L6.49626 2H1.5Z" fill="#C5C5C5"/>
<g clip-path="url(#clip0_2_138)">
<path d="M4.5 6.75C4.00754 6.75 3.51991 6.847 3.06494 7.03545C2.60997 7.22391 2.19657 7.50013 1.84835 7.84835C1.14509 8.55161 0.75 9.50544 0.75 10.5C0.75 12.1575 1.82625 13.5637 3.315 14.0625C3.5025 14.0925 3.5625 13.9762 3.5625 13.875V13.2412C2.52375 13.4662 2.3025 12.7387 2.3025 12.7387C2.13 12.3037 1.88625 12.1875 1.88625 12.1875C1.545 11.955 1.9125 11.9625 1.9125 11.9625C2.2875 11.9887 2.48625 12.3487 2.48625 12.3487C2.8125 12.9187 3.36375 12.75 3.5775 12.66C3.61125 12.4162 3.70875 12.2512 3.81375 12.1575C2.98125 12.0637 2.1075 11.7412 2.1075 10.3125C2.1075 9.89625 2.25 9.5625 2.49375 9.29625C2.45625 9.2025 2.325 8.8125 2.53125 8.30625C2.53125 8.30625 2.84625 8.205 3.5625 8.68875C3.85875 8.60625 4.18125 8.565 4.5 8.565C4.81875 8.565 5.14125 8.60625 5.4375 8.68875C6.15375 8.205 6.46875 8.30625 6.46875 8.30625C6.675 8.8125 6.54375 9.2025 6.50625 9.29625C6.75 9.5625 6.8925 9.89625 6.8925 10.3125C6.8925 11.745 6.015 12.06 5.17875 12.1537C5.31375 12.27 5.4375 12.4987 5.4375 12.8475V13.875C5.4375 13.9762 5.4975 14.0962 5.68875 14.0625C7.1775 13.56 8.25 12.1575 8.25 10.5C8.25 10.0075 8.153 9.51991 7.96455 9.06494C7.77609 8.60997 7.49987 8.19657 7.15165 7.84835C6.80343 7.50013 6.39003 7.22391 5.93506 7.03545C5.48009 6.847 4.99246 6.75 4.5 6.75Z" fill="#C5C5C5"/>
</g>
<defs>
<clipPath id="clip0_2_138">
<rect width="9" height="9" fill="white" transform="translate(0 6)"/>
</clipPath>
</defs>
</svg>

<svg xmlns="http://www.w3.org/2000/svg" width="16" height="16" fill="none" xmlns:v="https://vecta.io/nano"><path fill-rule="evenodd" d="M1.5 2l-.5.5v3.748c.307-.252.642-.472 1-.654V3h4.289l.853.853.354.146h6.495v1.004H7.49l-.354.146-.351.351c.316.145.615.319.895.519l.017-.017h6.283v1.493 3.997 1.509H9.388a5.51 5.51 0 0 1-.658 1h5.749l.5-.5V9.006l.011-.011V3.499l-.5-.5H7.703l-.853-.853L6.496 2H1.5z" fill="#c5c5c5"/><g clip-path="url(#A)"><path d="M4.5 6.75a3.75 3.75 0 0 0-2.652 1.098A3.75 3.75 0 0 0 .75 10.5a3.76 3.76 0 0 0 2.565 3.563c.188.03.248-.086.248-.187v-.634c-1.039.225-1.26-.502-1.26-.502-.173-.435-.416-.551-.416-.551-.341-.232.026-.225.026-.225.375.026.574.386.574.386.326.57.878.401 1.091.311.034-.244.131-.409.236-.502-.832-.094-1.706-.416-1.706-1.845a1.45 1.45 0 0 1 .386-1.016c-.038-.094-.169-.484.038-.99 0 0 .315-.101 1.031.383.296-.083.619-.124.938-.124s.641.041.938.124c.716-.484 1.031-.383 1.031-.383.206.506.075.896.037.99a1.45 1.45 0 0 1 .386 1.016c0 1.432-.878 1.748-1.714 1.841.135.116.259.345.259.694v1.027c0 .101.06.221.251.188A3.76 3.76 0 0 0 8.25 10.5a3.75 3.75 0 0 0-1.098-2.652A3.75 3.75 0 0 0 4.5 6.75z" fill="#c5c5c5"/></g><defs><clipPath id="A"><path fill="#fff" transform="translate(0 6)" d="M0 0h9v9H0z"/></clipPath></defs></svg>
